X:1
T:Saved from the Wreck
T:Saved from the Wreck
T:Henry Lake Gilmour
T:Eliza Edmunds Hewitt, 1897
T:Public Domain Courtesy of the Cyber Hymnal™
T:Public Domain Courtesy of the Cyber Hymnal™
C:Henry Lake Gilmour
Z:Public Domain
Z:Courtesy of the Cyber Hymnal™
%%score ( 1 2 ) 3
L:1/8
M:3/4
K:Ab
V:1 treble 
V:2 treble 
V:3 bass 
V:1
 [Ec]2 | [Ec]3 [DB] [CA]2 | [Fd]2 [Fd]2 [Ec]2 | [DB]2 [DF]2 [DA]2 | [CE]4 [CE]2 | %5
w: 1.~A-|drift on the|wa- ters, so|dark and so|cold, A-|
w: 2.~Oh,|I was the|sin- ner a-|lone on the|sea, But|
w: 3.~I|stepped in the|life boat, pro-|vid- ed for|me, And|
w: 4.~Life’s|tur- bu- lent|surg- es are|kissed in- to|peace, The|
 [DF]3 [EG] [FA]2 | E2 [EA]2 [Ec]2 | [=Dc]3 [DB] [DA]2 | [DB]4 [Ec]2 | [Ec]3 [DB] [CA]2 | %10
w: far from the|beau- ti- ful|ci- ty of|gold, A|ves- sel is|
w: love’s bless- èd|sig- nal were|floati- ng for|me; Though|thun- ders were|
w: Je- sus my|pi- lot, my|cap- tain to|be; His|bo- som my|
w: bea- cons are|shin- ing, and|songs ne- ver|cease; Fair|moon- beams, bright|
 [Fd]2 [Fd]2 [Ec]2 | [DB]2 [DF]2 [DA]2 | [Fd]4 [A=d]2 | [Ge] [GB]4 [_Gc]2 | [Fd] [FA]4 [_FB]2 | %15
w: sink- ing, for|hea- vy the|gale, The|ca- ble is|brok- en, and|
w: roll- ing, and|bil- lows at|strife, Lo,|Je- sus was|call- ing, “es-|
w: re- fuge, my|“ha- ven of|rest.” I’m|res- cued from|ship- wreck, so|
w: sun- shine, il-|lum- ine the|tide, While|on- ward to|glo- ry we’ll|
 [Ec] [Ac]3 [GB]2 | [EA]4 ||"^Refrain" [Cc]2 | [Cc]4 [Cc]>[Cc] | [Ee]2- [Ee]<A B/ | c2 A2 F2 | %21
w: tat- tered each|sail.|||||
w: cape for thy|life.”|Poor|child of the|wreck, * see the|life- boat is|
w: hap- py and|blest.|||||
w: joy- ful- ly|glide.|||||
 E4 [Ec]2 | [Ec]2 [DB]2 [CA]2 | [B,G]4 [B,G][CA] | [DB]2 [DB]2 [=D=B]2 | [Ec]4 [Ae]2 | %26
w: |||||
w: near, A|sweet voice is|heard, for the|Mas- ter is|here; He|
w: |||||
w: |||||
 [Ae]2 [Ad]2 [Ac]2 | [Ac] [EA]3 [GB]2 | [Ac]2 [GB]2 [_Gc]2 | [Fd]4 (FA) | [Ge] [GB]4 [_Gc]2 | %31
w: |||||
w: walks ev- ery|bil- low, con-|trols ev- ery|wave, ’Tis *|Je- sus, King|
w: |||||
w: |||||
 [Fd] [FA]4 [_FB]2 | [Ec] [Ac]3 [GB]2 | [EA]4 |] %34
w: |||
w: Je- sus, “the|might- y to|save.”|
w: |||
w: |||
V:2
 x2 | x6 | x6 | x6 | x6 | x6 | E2 x4 | x6 | x6 | x6 | x6 | x6 | x6 | x7 | x7 | x6 | x4 || x2 | x6 | %19
 x9/2 | x6 | x6 | x6 | x6 | x6 | x6 | x6 | x6 | x6 | x6 | x7 | x7 | x6 | x4 |] %34
V:3
 [A,,A,]2 | [A,,A,]3 [A,,A,] [A,,A,]2 | [A,,A,]2 [A,,A,]2 [A,,A,]2 | [D,F,]2 [D,A,]2 [F,A,]2 | %4
 A,4 [A,,A,]2 | [D,A,]3 [D,A,] [D,A,]2 | [C,A,]2 [C,A,]2 [A,,A,]2 | [B,,A,]3 [B,,A,] [B,,A,]2 | %8
 [E,G,]4 A,2 | [A,,A,]3 [A,,A,] [A,,A,]2 | [A,,A,]2 [A,,A,]2 [A,,A,]2 | [D,F,]2 [D,A,]2 [D,F,]2 | %12
 [D,A,]4 [B,,B,]2 | [E,B,] [E,E]4 A,2 | [D,A,] [D,D]4 [D,A,]2 | [E,A,] [E,E]3 [E,D]2 | [A,,A,C]4 || %17
 [C,C]2 | [C,C]4 [C,C]>[C,C] | [E,E]2- [E,E]<A, B,/ | C2 A,2 F,2 | E,4 E2 | E2 D2 C2 | B,4 B,C | %24
 D2 D2 =D2 | E4 [A,C]2 | [A,C]2 [A,F]2 [A,E]2 | [A,E] [A,C]3 [E,E]2 | [A,E]2 [A,E]2 A,2 | %29
 [D,A,]4 [B,,B,]2 | [E,B,] [E,E]4 A,2 | [D,A,] [D,D]4 [D,A,]2 | [E,A,] [E,E]3 [E,D]2 | [A,,A,C]4 |] %34

